assets/img/logo_menu-tablet.svg

<svg width="148" height="24" viewBox="0 0 148 24" fill="none" xmlns="http://www.w3.org/2000/svg">
<g filter="url(#filter0_i_8835_46365)">
<path d="M8.3395 13.771L8.23982 13.7379L8.0737 13.7048L8.04437 13.6972C7.27338 13.4969 5.86403 13.1308 4.55184 12.2483C2.69123 11.0234 1.66125 9.23586 1.56158 7.01793C1.4619 5.16414 2.05996 3.54207 3.25606 2.28414C4.98376 0.496552 7.47564 0 8.67175 0C12.0547 0 13.9478 1.22048 15.64 2.31142L15.649 2.31724L16.4132 2.81379L13.9878 6.7531L13.1571 6.22345L13.1222 6.20101C11.6469 5.25366 10.6826 4.63448 8.67175 4.63448C8.37272 4.63448 7.20984 4.86621 6.61179 5.49517C6.41244 5.69379 6.17986 6.05793 6.21309 6.81931C6.24632 8.01104 7.07694 8.6731 9.20335 9.20276C9.46914 9.26896 9.66849 9.33517 9.86784 9.40138C12.0939 10.1628 13.8216 11.189 15.0177 12.48C16.2138 13.8041 16.8451 15.36 16.8451 17.0152C16.8451 18.6372 16.1474 20.3255 14.9845 21.6166C13.6223 23.1393 11.7285 24 9.63527 24C8.6053 24 7.20984 23.9338 5.54859 23.4372C3.45541 22.7752 1.5948 21.6166 0 19.9283L3.38896 16.7503C5.84761 19.3655 8.6053 19.3655 9.63527 19.3655C11.5623 19.3655 12.1936 17.611 12.1936 17.0152C12.1936 15.7572 10.7649 14.5986 8.3395 13.771Z" fill="url(#paint0_linear_8835_46365)"/>
<path d="M31.6196 0.331034H47.1357V4.96552H36.2711V9.23586H45.2419V13.8703H36.2711V23.5366H31.6196V0.331034Z" fill="url(#paint1_linear_8835_46365)"/>
<path d="M62.4281 0.331034H77.9442V4.96552H62.4281V0.331034Z" fill="url(#paint2_linear_8835_46365)"/>
<path d="M75.2862 13.9035H62.4281V9.26897H75.2862V13.9035Z" fill="url(#paint3_linear_8835_46365)"/>
<path d="M77.8445 23.5366H62.4281V18.9021H77.8445V23.5366Z" fill="url(#paint4_linear_8835_46365)"/>
<path d="M104.813 7.28276C104.813 5.99172 103.783 4.93241 102.487 4.93241H98.0347V23.5035H93.3832V0.297931H102.487C106.341 0.297931 109.464 3.44276 109.464 7.28276C109.464 10.0966 107.803 12.5131 105.377 13.6055L109.996 23.5366H105.045L100.693 14.2345V9.6H102.487C103.783 9.6 104.813 8.57379 104.813 7.28276Z" fill="url(#paint5_linear_8835_46365)"/>
<path d="M123.26 23.5366L135.121 0.331034H136.483L147.481 23.5366H142.331L140.782 20.2497H135.054V16.2915H138.917L135.686 9.43448L128.476 23.5366H123.26Z" fill="url(#paint6_linear_8835_46365)"/>
</g>
<defs>
<filter id="filter0_i_8835_46365" x="0" y="0" width="148.2" height="26.5671" filterUnits="userSpaceOnUse" color-interpolation-filters="sRGB">
<feFlood flood-opacity="0" result="BackgroundImageFix"/>
<feBlend mode="normal" in="SourceGraphic" in2="BackgroundImageFix" result="shape"/>
<feColorMatrix in="SourceAlpha" type="matrix" values="0 0 0 0 0 0 0 0 0 0 0 0 0 0 0 0 0 0 127 0" result="hardAlpha"/>
<feOffset dx="0.715292" dy="2.86117"/>
<feGaussianBlur stdDeviation="1.28355"/>
<feComposite in2="hardAlpha" operator="arithmetic" k2="-1" k3="1"/>
<feColorMatrix type="matrix" values="0 0 0 0 0 0 0 0 0 0 0 0 0 0 0 0 0 0 0.5 0"/>
<feBlend mode="normal" in2="shape" result="effect1_innerShadow_8835_46365"/>
</filter>
<linearGradient id="paint0_linear_8835_46365" x1="73.7405" y1="0" x2="73.7405" y2="24" gradientUnits="userSpaceOnUse">
<stop stop-color="#2E2E31"/>
<stop offset="1" stop-color="#18181A"/>
</linearGradient>
<linearGradient id="paint1_linear_8835_46365" x1="73.7405" y1="0" x2="73.7405" y2="24" gradientUnits="userSpaceOnUse">
<stop stop-color="#2E2E31"/>
<stop offset="1" stop-color="#18181A"/>
</linearGradient>
<linearGradient id="paint2_linear_8835_46365" x1="73.7405" y1="0" x2="73.7405" y2="24" gradientUnits="userSpaceOnUse">
<stop stop-color="#2E2E31"/>
<stop offset="1" stop-color="#18181A"/>
</linearGradient>
<linearGradient id="paint3_linear_8835_46365" x1="73.7405" y1="0" x2="73.7405" y2="24" gradientUnits="userSpaceOnUse">
<stop stop-color="#2E2E31"/>
<stop offset="1" stop-color="#18181A"/>
</linearGradient>
<linearGradient id="paint4_linear_8835_46365" x1="73.7405" y1="0" x2="73.7405" y2="24" gradientUnits="userSpaceOnUse">
<stop stop-color="#2E2E31"/>
<stop offset="1" stop-color="#18181A"/>
</linearGradient>
<linearGradient id="paint5_linear_8835_46365" x1="73.7405" y1="0" x2="73.7405" y2="24" gradientUnits="userSpaceOnUse">
<stop stop-color="#2E2E31"/>
<stop offset="1" stop-color="#18181A"/>
</linearGradient>
<linearGradient id="paint6_linear_8835_46365" x1="73.7405" y1="0" x2="73.7405" y2="24" gradientUnits="userSpaceOnUse">
<stop stop-color="#2E2E31"/>
<stop offset="1" stop-color="#18181A"/>
</linearGradient>
</defs>
</svg>

<svg width="148" height="24" fill="none" xmlns="http://www.w3.org/2000/svg"><g filter="url(#a)"><path d="m8.34 13.771-.1-.033-.166-.033-.03-.008c-.77-.2-2.18-.566-3.492-1.449-1.86-1.225-2.89-3.012-2.99-5.23-.1-1.854.498-3.476 1.694-4.734C4.984.497 7.476 0 8.672 0c3.383 0 5.276 1.22 6.968 2.311l.009.006.764.497-2.425 3.94-.83-.53-.036-.023c-1.475-.947-2.44-1.567-4.45-1.567-.3 0-1.462.232-2.06.861-.2.199-.432.563-.399 1.324.033 1.192.864 1.854 2.99 2.384.266.066.465.132.665.198 2.226.762 3.954 1.788 5.15 3.079 1.196 1.324 1.827 2.88 1.827 4.535 0 1.622-.698 3.31-1.86 4.602A7.087 7.087 0 0 1 9.635 24c-1.03 0-2.425-.066-4.086-.563-2.094-.662-3.954-1.82-5.549-3.509l3.389-3.178c2.459 2.616 5.216 2.616 6.246 2.616 1.927 0 2.559-1.755 2.559-2.35 0-1.259-1.43-2.417-3.855-3.245Z" fill="url(#b)"/><path d="M31.62.331h15.516v4.635H36.27v4.27h8.97v4.634h-8.97v9.667H31.62V.33Z" fill="url(#c)"/><path d="M62.428.331h15.516v4.635H62.428V.33Z" fill="url(#d)"/><path d="M75.286 13.903H62.428V9.27h12.858v4.634Z" fill="url(#e)"/><path d="M77.844 23.537H62.428v-4.635h15.416v4.635Z" fill="url(#f)"/><path d="M104.813 7.283c0-1.291-1.03-2.35-2.326-2.35h-4.452v18.57h-4.652V.299h9.104c3.854 0 6.977 3.145 6.977 6.985a6.914 6.914 0 0 1-4.087 6.322l4.619 9.932h-4.951l-4.352-9.302V9.6h1.794a2.307 2.307 0 0 0 2.326-2.317Z" fill="url(#g)"/><path d="M123.26 23.537 135.121.33h1.362l10.998 23.206h-5.15l-1.549-3.287h-5.728V16.29h3.863l-3.231-6.857-7.21 14.103h-5.216Z" fill="url(#h)"/></g><defs><linearGradient id="b" x1="73.74" y1="0" x2="73.74" y2="24" gradientUnits="userSpaceOnUse"><stop stop-color="#2E2E31"/><stop offset="1" stop-color="#18181A"/></linearGradient><linearGradient id="c" x1="73.74" y1="0" x2="73.74" y2="24" gradientUnits="userSpaceOnUse"><stop stop-color="#2E2E31"/><stop offset="1" stop-color="#18181A"/></linearGradient><linearGradient id="d" x1="73.74" y1="0" x2="73.74" y2="24" gradientUnits="userSpaceOnUse"><stop stop-color="#2E2E31"/><stop offset="1" stop-color="#18181A"/></linearGradient><linearGradient id="e" x1="73.74" y1="0" x2="73.74" y2="24" gradientUnits="userSpaceOnUse"><stop stop-color="#2E2E31"/><stop offset="1" stop-color="#18181A"/></linearGradient><linearGradient id="f" x1="73.74" y1="0" x2="73.74" y2="24" gradientUnits="userSpaceOnUse"><stop stop-color="#2E2E31"/><stop offset="1" stop-color="#18181A"/></linearGradient><linearGradient id="g" x1="73.74" y1="0" x2="73.74" y2="24" gradientUnits="userSpaceOnUse"><stop stop-color="#2E2E31"/><stop offset="1" stop-color="#18181A"/></linearGradient><linearGradient id="h" x1="73.74" y1="0" x2="73.74" y2="24" gradientUnits="userSpaceOnUse"><stop stop-color="#2E2E31"/><stop offset="1" stop-color="#18181A"/></linearGradient><filter id="a" x="0" y="0" width="148.2" height="26.567" filterUnits="userSpaceOnUse" color-interpolation-filters="sRGB"><feFlood flood-opacity="0" result="BackgroundImageFix"/><feBlend in="SourceGraphic" in2="BackgroundImageFix" result="shape"/><feColorMatrix in="SourceAlpha" values="0 0 0 0 0 0 0 0 0 0 0 0 0 0 0 0 0 0 127 0" result="hardAlpha"/><feOffset dx=".715" dy="2.861"/><feGaussianBlur stdDeviation="1.284"/><feComposite in2="hardAlpha" operator="arithmetic" k2="-1" k3="1"/><feColorMatrix values="0 0 0 0 0 0 0 0 0 0 0 0 0 0 0 0 0 0 0.5 0"/><feBlend in2="shape" result="effect1_innerShadow_8835_46365"/></filter></defs></svg>
